build/assets/img/stage-promotion/image-element-4.svg

<svg width="61" height="51" viewBox="0 0 61 51" fill="none" xmlns="http://www.w3.org/2000/svg">
<g filter="url(#filter0_di)">
<path d="M49.4668 14.5462L18.413 2.81802C16.2912 2.02417 13.9435 2.10811 11.883 3.0515C9.82242 3.99489 8.21659 5.72101 7.41638 7.85268L2.5354 20.9447C1.74799 23.0815 1.83188 25.4451 2.76876 27.5199C3.70564 29.5947 5.41949 31.2123 7.53648 32.02L15.0453 34.8541C17.3417 39.5744 18.365 43.2258 19.6044 43.6901C20.8439 44.1544 24.4902 41.7556 28.8091 40.0483L38.5903 43.7385C40.7115 44.5312 43.0582 44.4474 45.1183 43.5051C47.1783 42.5628 48.7847 40.8386 49.5869 38.7087L54.463 25.6118C55.2517 23.477 55.1689 21.1148 54.2327 19.0413C53.2964 16.9678 51.583 15.3517 49.4668 14.5462Z" fill="url(#paint0_linear)"/>
<path d="M39.1415 24.8435C40.4482 21.3903 38.7427 17.913 36.0476 16.878C34.9583 16.4558 33.763 16.3975 32.6383 16.712C31.5137 17.0264 30.5193 17.6967 29.8023 18.6239C29.8814 17.4505 29.5837 16.2825 28.9531 15.2923C28.3225 14.3022 27.3924 13.5424 26.3001 13.125C23.605 12.0852 20.0547 13.5361 18.7192 16.9941C16.7399 22.2222 22.4328 31.2662 24.1622 32.6494L24.2631 32.7268C24.3119 32.76 24.3633 32.7892 24.4169 32.8138C24.4716 32.8318 24.5279 32.8447 24.585 32.8525H24.7147C26.9294 32.9928 37.1622 30.0668 39.1415 24.8435Z" fill="#FCFCFC"/>
</g>
<defs>
<filter id="filter0_di" x="0" y="0.277863" width="61" height="50" filterUnits="userSpaceOnUse" color-interpolation-filters="sRGB">
<feFlood flood-opacity="0" result="BackgroundImageFix"/>
<feColorMatrix in="SourceAlpha" type="matrix" values="0 0 0 0 0 0 0 0 0 0 0 0 0 0 0 0 0 0 127 0"/>
<feOffset dx="2" dy="2"/>
<feGaussianBlur stdDeviation="2"/>
<feColorMatrix type="matrix" values="0 0 0 0 0 0 0 0 0 0 0 0 0 0 0 0 0 0 0.15 0"/>
<feBlend mode="normal" in2="BackgroundImageFix" result="effect1_dropShadow"/>
<feBlend mode="normal" in="SourceGraphic" in2="effect1_dropShadow" result="shape"/>
<feColorMatrix in="SourceAlpha" type="matrix" values="0 0 0 0 0 0 0 0 0 0 0 0 0 0 0 0 0 0 127 0" result="hardAlpha"/>
<feOffset dx="-2" dy="-2"/>
<feGaussianBlur stdDeviation="2"/>
<feComposite in2="hardAlpha" operator="arithmetic" k2="-1" k3="1"/>
<feColorMatrix type="matrix" values="0 0 0 0 0 0 0 0 0 0 0 0 0 0 0 0 0 0 0.2 0"/>
<feBlend mode="normal" in2="shape" result="effect2_innerShadow"/>
</filter>
<linearGradient id="paint0_linear" x1="53.3662" y1="23.2779" x2="3.58185" y2="21.929" gradientUnits="userSpaceOnUse">
<stop stop-color="#A62E41"/>
<stop offset="1" stop-color="#E13152"/>
</linearGradient>
</defs>
</svg>

<svg width="61" height="51" fill="none" xmlns="http://www.w3.org/2000/svg"><g filter="url(#filter0_di)"><path d="M49.467 14.546L18.413 2.818a8.513 8.513 0 00-6.53.233 8.6 8.6 0 00-4.467 4.802l-4.88 13.092a8.686 8.686 0 00.233 6.575 8.6 8.6 0 004.767 4.5l7.51 2.834c2.296 4.72 3.319 8.372 4.558 8.836 1.24.464 4.886-1.934 9.205-3.642l9.781 3.69a8.518 8.518 0 006.528-.233 8.605 8.605 0 004.469-4.796l4.876-13.097a8.671 8.671 0 00-.23-6.57 8.585 8.585 0 00-4.766-4.496z" fill="url(#paint0_linear)"/><path d="M39.142 24.843c1.306-3.453-.4-6.93-3.094-7.965a5.404 5.404 0 00-3.41-.166 5.436 5.436 0 00-2.836 1.912 5.513 5.513 0 00-.849-3.332 5.456 5.456 0 00-2.653-2.167c-2.695-1.04-6.245.411-7.58 3.87-1.98 5.227 3.713 14.271 5.442 15.654l.101.078c.049.033.1.062.154.087.055.018.11.03.168.038h.13c2.214.14 12.447-2.785 14.427-8.008z" fill="#FCFCFC"/></g><defs><linearGradient id="paint0_linear" x1="53.366" y1="23.278" x2="3.582" y2="21.929" gradientUnits="userSpaceOnUse"><stop stop-color="#A62E41"/><stop offset="1" stop-color="#E13152"/></linearGradient><filter id="filter0_di" x="0" y=".278" width="61" height="50" filterUnits="userSpaceOnUse" color-interpolation-filters="sRGB"><feFlood flood-opacity="0" result="BackgroundImageFix"/><feColorMatrix in="SourceAlpha" values="0 0 0 0 0 0 0 0 0 0 0 0 0 0 0 0 0 0 127 0"/><feOffset dx="2" dy="2"/><feGaussianBlur stdDeviation="2"/><feColorMatrix values="0 0 0 0 0 0 0 0 0 0 0 0 0 0 0 0 0 0 0.15 0"/><feBlend in2="BackgroundImageFix" result="effect1_dropShadow"/><feBlend in="SourceGraphic" in2="effect1_dropShadow" result="shape"/><feColorMatrix in="SourceAlpha" values="0 0 0 0 0 0 0 0 0 0 0 0 0 0 0 0 0 0 127 0" result="hardAlpha"/><feOffset dx="-2" dy="-2"/><feGaussianBlur stdDeviation="2"/><feComposite in2="hardAlpha" operator="arithmetic" k2="-1" k3="1"/><feColorMatrix values="0 0 0 0 0 0 0 0 0 0 0 0 0 0 0 0 0 0 0.2 0"/><feBlend in2="shape" result="effect2_innerShadow"/></filter></defs></svg>
